!!!!SEGMENT: Lhe2011-Sub_tuum_presidium.krn
!!!id: Lhe2011
!!!AGN: Motet
!!!SCT: Perkins (1969)
!!!voices: 4
!!!COM: Jean Lhéritier
!!!OTL: Sub tuum presidium
**kern	**kern	**kern	**kern
*part4	*part3	*part2	*part1
*staff4	*staff3	*staff2	*staff1
*I"Bassus	*I"Tenor	*I"Altus	*I"Superius
*I'B	*I'T	*I'A	*I'S
*clefF4	*clefGv2	*clefG2	*clefG2
*k[]	*k[]	*k[]	*k[]
*C:	*C:	*C:	*C:
*M2/1	*M2/1	*M2/1	*M2/1
*met(C|)	*met(C|)	*met(C|)	*met(C|)
!!Section: Prima pars: Sub tuum presidium
!!!OMD: Prima pars: Sub tuum presidium
=1	=1	=1	=1
0r	0g	0r	0r
=2	=2	=2	=2
0r	0f	0r	0r
=3	=3	=3	=3
0r	1.g	0r	0dd
.	2d	.	.
=4	=4	=4	=4
0r	1f	0r	0cc
.	1e	.	.
=5	=5	=5	=5
0r	1d	0r	1.dd
.	1f	.	.
.	.	.	2a
=6	=6	=6	=6
0r	1f	0r	1cc
.	1g	.	1b
=7	=7	=7	=7
0r	2d	0r	1a
.	1f	.	.
.	.	.	1cc
.	4e	.	.
.	4d	.	.
=8	=8	=8	=8
1r	2e	0r	1cc
.	2e	.	.
[1d	2d	.	1dd
.	[2f	.	.
=9	=9	=9	=9
1d]	4f]	0r	2a
.	4g	.	.
.	1a	.	1ff
[1c	.	.	.
.	4g	.	4ee
.	4f	.	4dd
=10	=10	=10	=10
1c]	2a	1r	2ee
.	1g	.	2ee
[1d	.	[1a	1dd
.	4f	.	.
.	4e	.	.
=11	=11	=11	=11
2d]	1f	1a]	0r
2A	.	.	.
1c	1e	[1g	.
=12	=12	=12	=12
1B	0r	1g]	0r
1A	.	[1a	.
=13	=13	=13	=13
1c	0r	2a]	0r
.	.	2e	.
1c	.	1g	.
=14	=14	=14	=14
1d	1r	1f	2r
.	.	.	2a
2A	1e	1e	1cc
[2c	.	.	.
=15	=15	=15	=15
2c]	1c	1g	1ee
4B	.	.	.
4A	.	.	.
2B	1d	1g	1dd
2B	.	.	.
=16	=16	=16	=16
1.A	1.e	1a	2.cc
.	.	.	4dd
.	.	2e	4ee
.	.	.	4cc
2A	2c	[2a	[2ff
=17	=17	=17	=17
2B-X	2d	2a]	2ff]
2B-i	2d	2g	4ee
.	.	.	4dd
2.A	[1e	1a	[1cc
4B-i	.	.	.
=18	=18	=18	=18
2c	2e]	1r	1cc]
2A	2e	.	.
2d	2f	[1a	1r
2c	[2e	.	.
=19	=19	=19	=19
1B-i	2e]	2a]	1.dd
.	2d	2g	.
1A	1e	1a	.
.	.	.	2cc
=20	=20	=20	=20
0r	0r	2.f	2dd
.	.	.	2a
.	.	4e	.
.	.	4f	1cc
.	.	4g	.
.	.	[2a	.
=21	=21	=21	=21
1r	1e	2a]	1b
.	.	2g#i	.
2r	[1f	1a	[1a
[2d	.	.	.
=22	=22	=22	=22
2d]	2f]	1A	0a]
2c	2e	.	.
2d	2f	1r	.
2A	[2e	.	.
=23	=23	=23	=23
1c	2e]	1.a	1r
.	4d	.	.
.	4c	.	.
1B	1d	.	[1dd
.	.	2g	.
=24	=24	=24	=24
1A	1e	1a	2dd]
.	.	.	2cc
1r	1r	2.f	2dd
.	.	.	2a
.	.	4e	.
=25	=25	=25	=25
0r	1r	4f	1a
.	.	4g	.
.	.	1a	.
.	1e	.	1b
.	.	2g#i	.
=26	=26	=26	=26
2r	1.f	1a	1a
1d	.	.	.
.	.	1A	2r
2c	2e	.	[2a
=27	=27	=27	=27
2d	2f	2r	4a]
.	.	.	4b
2c	1e	1a	4cc
.	.	.	4dd
1A	.	.	2ee
.	4d	2a	[2ff
.	4c	.	.
=28	=28	=28	=28
1B	1d	2f	4ff]
.	.	.	4ee
.	.	2g	1dd
2A	2e	2a	.
2A	[2f	2a	2cc#i
=29	=29	=29	=29
2.B	4f]	1f	1dd
.	4e	.	.
.	4d	.	.
4A	4c	.	.
4G	4B	1r	1r
4F	4A	.	.
4E	[2d	.	.
4D	.	.	.
=30	=30	=30	=30
1E	2d]	1r	1ee
.	2c#i	.	.
1D	1d	1a	[1ff
=31	=31	=31	=31
0r	0r	1.b-X	2ff]
.	.	.	2ee
.	.	.	2dd
.	.	2a	2ff
=32	=32	=32	=32
0r	0r	2g	2ee
.	.	2.f	2.dd
.	.	4e	4cc
.	.	[2a	4b
.	.	.	4a
=33	=33	=33	=33
1r	1e	2a]	1b
.	.	2g#i	.
1A	[1f	1a	1a
=34	=34	=34	=34
1.B	2f]	1.d	0r
.	2e	.	.
.	2d	.	.
2A	2f	2c	.
=35	=35	=35	=35
2G	2e	2B	1r
2F	1d	2A	.
2E	.	2B	1ee
2E	2c#i	2G	.
=36	=36	=36	=36
2D	2d	1B-X	1.ff
2d	2d	.	.
2d	[1a	1A	.
2c	.	.	2ee
=37	=37	=37	=37
1.d	2a]	1r	2dd
.	2g	.	2cc
.	2f	2r	2b
2c	2e	2a	2a
=38	=38	=38	=38
2B	2e	2a	1dd
2B	2d	2g	.
1A	2e	[1a	2r
.	2A	.	[2cc
=39	=39	=39	=39
0r	1e	2a]	2cc]
.	.	2g	2b
.	2c	2e	[1a
.	[2d	[2f	.
=40	=40	=40	=40
1r	4d]	4f]	2a]
.	4A	4e	.
.	2c	1e	2a
2r	1B	.	1g
2d	.	2d	.
=41	=41	=41	=41
2d	2A	1e	2a
2c	1a	.	2ee
2d	.	2r	2ff
2A	2a	2cc	[2ee
=42	=42	=42	=42
2c	2g	2cc	2ee]
2d	2f	2b	1dd
1A	1e	2.a	.
.	.	.	2cc
.	.	4g	.
=43	=43	=43	=43
1D	2.d	2f	2b
.	.	2f	1a
.	4c	.	.
1E	1B	[1e	.
.	.	.	2g#i
=44	=44	=44	=44
0A	2A	2e]	[0a
.	2e	2c	.
.	2f	[1c	.
.	[2e	.	.
=45	=45	=45	=45
2r	2e]	1c]	1a]
2A	4d	.	.
.	4c	.	.
2B	2d	1r	1r
[2A	[2e	.	.
=46	=46	=46	=46
2A]	4e]	1a	1r
.	4A	.	.
4G	1d	.	.
4F	.	.	.
2G	.	2b	1ee
2A	2c#i	[2a	.
=47	=47	=47	=47
1D	2d	2a]	1ff
.	2d	4g	.
.	.	4f	.
1r	2c	2g	2ee
.	2A	[2a	[2ff
=48	=48	=48	=48
1d	1B	2a]	2ff]
.	.	2g	4ee
.	.	.	4dd
2e	1A	1a	2cc
2c	.	.	[2ee
=49	=49	=49	=49
1d	1.a	1f	2ee]
.	.	.	2dd
4A	.	1e	1ee
4B	.	.	.
4c	2a	.	.
4A	.	.	.
=50	=50	=50	=50
2B	2g	2r	1r
1d	2f	2a	.
.	1e	2b	1ee
2c#i	.	[2a	.
=51	=51	=51	=51
1d	2r	2a]	1ff
.	2d	4g	.
.	.	4f	.
1r	2c	2g	2ee
.	2A	[2a	[2ff
=52	=52	=52	=52
1d	1B	2a]	2ff]
.	.	2g	4ee
.	.	.	4dd
2e	1A	1a	2cc
2c	.	.	[2ee
=53	=53	=53	=53
1d	1.a	1f	2ee]
.	.	.	2dd
1A	.	1e	1ee
.	2a	.	.
=54	=54	=54	=54
1.d	2f	0r	0r
.	2d	.	.
.	2f	.	.
2c	2e	.	.
=55	=55	=55	=55
2B	2d	2r	0r
2A	2f	1a	.
2c	2e	.	.
2B	[2d	2g	.
=56	=56	=56	=56
1A	2d]	2f	2r
.	2c#i	2e	1ee
1G	1d	2g	.
.	.	2f	2dd
=57	=57	=57	=57
2.A	2r	2e	2cc
.	1e	2c	2a
4G	.	.	.
4E	.	1g	2cc
4F	.	.	.
2G	2d	.	2b
=58	=58	=58	=58
1A	2c	2r	1a
.	2A	1e	.
1E	2c	.	1g
.	2B	2d	.
=59	=59	=59	=59
1A	2A	2c	4f
.	.	.	4e
.	1e	2A	1a
2r	.	2c	.
[2d	2d	2B	2g#i
=60	=60	=60	=60
2d]	1e	2A	1a
2c	.	2a	.
2B	2r	2g	1r
2A	[2a	2f	.
=61	=61	=61	=61
2c	2a]	2e	2r
2B	2g	2d	1dd
1A	2f	1a	.
.	2e	.	2cc
=62	=62	=62	=62
2G	2g	1d	2b
2D	2f	.	2a
2A	2e	2c	2cc
2G	2g	[2d	2b
=63	=63	=63	=63
2d	2f	4d]	2a
.	.	4e	.
2B	2d	4f	1dd
.	.	4g	.
1A	1e	2.a	.
.	.	.	2cc#i
.	.	4g	.
=64	=64	=64	=64
2D	1d	2f	0dd
2G	.	2g	.
2G	2r	1d	.
2G	2d	.	.
=65	=65	=65	=65
2F	2d	2r	1r
2D	2d	2a	.
1A	2c	2a	2r
.	2A	2a	2ee
=66	=66	=66	=66
0r	1c	2g	2ee
.	.	2e	2ee
.	1B	1g	2dd
.	.	.	2b
=67	=67	=67	=67
2r	1A	2f	1cc
2A	.	1e	.
2A	2r	.	1cc
2A	2e	4d	.
.	.	4c	.
=68	=68	=68	=68
2G	2e	1g	1b
2E	2e	.	.
[1G	2.d	1r	2r
.	.	.	2dd
.	4c	.	.
=69	=69	=69	=69
2G]	2B	1g	2dd
2F	1A	.	2dd
1E	.	2g	2cc
.	2G	2g	2b
=70	=70	=70	=70
1D	1A	2f	4dd
.	.	.	4ee
.	.	2d	4ff
.	.	.	4dd
1r	1r	1a	2ee
.	.	.	[2ff
=71	=71	=71	=71
1r	0r	2.b	4ff]
.	.	.	4ee
.	.	.	4dd
.	.	4a	4cc
2r	.	4g	4b
.	.	4f	4a
2F	.	4e	[2dd
.	.	4d	.
=72	=72	=72	=72
2G	1r	1e	2dd]
2A	.	.	2cc#i
2D	2r	4d	1dd
.	.	4e	.
[2d	2F	4f	.
.	.	4d	.
=73	=73	=73	=73
2d]	2G	1e	0r
2c#i	2A	.	.
2d	1B-i	[1d	.
[2D	.	.	.
=74	=74	=74	=74
4D]	2.A	1d]	1r
4E	.	.	.
4F	.	.	.
4G	4B	.	.
2.A	4c	1r	2r
.	4d	.	.
.	[2e	.	2cc
4G	.	.	.
=75	=75	=75	=75
2F	4e]	0r	1dd
.	4d	.	.
2G	1d	.	.
1E	.	.	1ee
.	2c#i	.	.
=76	=76	=76	=76
1D	2d	2r	1ff
.	2d	2f	.
2r	2e	2g	1ee
2A	2c	2a	.
=77	=77	=77	=77
2B	1g	2d	1dd
2G	.	2g	.
1d	2r	2a	1ff
.	2d	2b	.
=78	=78	=78	=78
2r	2e	1cc	1ee
2A	2c	.	.
2B	1g	1b	[1dd
2G	.	.	.
=79	=79	=79	=79
1d	1r	2.a	2dd]
.	.	.	4cc
.	.	4g	4b
1r	2r	4f	4a
.	.	4e	4b
.	2c	[2a	4cc
.	.	.	4a
=80	=80	=80	=80
1r	2d	2a]	1b
.	2e	2g#i	.
2r	1f	1a	2r
2F	.	.	2a
=81	=81	=81	=81
2G	1e	2r	2b
2A	.	2a	2cc
1B-i	1d	2f	1dd
.	.	2g	.
=82	=82	=82	=82
1A	2r	1a	1cc
.	2e	.	.
1D	2f	2r	2a
.	2d	2a	2dd
=83	=83	=83	=83
2r	1f	2a	2cc
2F	.	2a	1dd
2G	1e	2b	.
2A	.	2a	2cc
=84	=84	=84	=84
2D	2d	1a	2ff
2A	2e	.	2cc
2B	1g	2r	2dd
2c	.	2e	2ee
=85	=85	=85	=85
1d	1f	2f	2a
.	.	2d	2.ff
1B	1d	2f	.
.	.	.	4ee
.	.	2g	[2dd
=86	=86	=86	=86
1A	1e	[0a	2dd]
.	.	.	2cc#i
1r	2d	.	[1dd
.	2d	.	.
=87	=87	=87	=87
1d	2f	0a]	1dd]
.	2f	.	.
2c	2e	.	1r
2d	[2f	.	.
=88	=88	=88	=88
4D	2f]	0r	0r
4E	.	.	.
4F	4e	.	.
4G	4d	.	.
4A	4c	.	.
4F	4d	.	.
[2G	[2e	.	.
=89	=89	=89	=89
4G]	4e]	0r	1r
4F	4d	.	.
4E	1d	.	.
4D	.	.	.
1E	.	.	2r
.	2c#i	.	2ee
=90	=90	=90	=90
2D	1d	[0a	2ff
2d	.	.	2ff
2c	1r	.	2ee
[2d	.	.	[2ff
=91	=91	=91	=91
2d]	0r	1a]	2ff]
4c	.	.	4ee
4B	.	.	4dd
2A	.	1a	4cc
.	.	.	4dd
[2c	.	.	[2ee
=92	=92	=92	=92
4c]	1r	2g	4ee]
4B	.	.	4dd
2d	.	2f	1dd
1A	2r	1e	.
.	[2a	.	2cc
=93	=93	=93	=93
2D	2a]	2d	2ff
2d	2f	2a	2dd
2c	2g	[1cc	2ee
2F	[2a	.	[2ff
=94	=94	=94	=94
1c	4a]	2cc]	4ff]
.	4g	.	4ee
.	4f	2cc	1ee
.	4e	.	.
1d	2f	2a	.
.	2f	2a	2dd
=95	=95	=95	=95
1A	2e	2.a	1ee
.	2e	.	.
.	.	4g	.
2r	2.a	4f	1r
.	.	4e	.
2D	.	4d	.
.	4a	4c	.
=96	=96	=96	=96
2E	2g	4B	2r
.	.	4c	.
2F	2f	1d	2a
2G	1e	.	2b
2A	.	2c	2cc
=97	=97	=97	=97
1D	2r	2d	2a
.	2d	2B	1dd
2r	2e	2A	.
2A	2f	2a	2cc#i
=98	=98	=98	=98
2B-X	2d	2f	[0dd
2G	1g	2.b-i	.
1d	.	.	.
.	.	4a	.
.	2f#i	[2a	.
=99	=99	=99	=99
1B-i	2g	2a]	1dd]
.	2d	2g	.
2A	1f	1a	1r
2D	.	.	.
=100	=100	=100	=100
2E	2e	2g	2r
2F	1d	2f	2a
2G	.	1e	2b
2A	2c	.	2cc
=101	=101	=101	=101
1D	4d	2r	2a
.	4e	.	.
.	4f	2a	1dd
.	4d	.	.
1A	1e	2a	.
.	.	2a	2cc#i
=102	=102	=102	=102
1B-i	[0dl	2f	1.dd
.	.	2.b-X	.
1F	.	.	.
.	.	4a	.
.	.	[2a	2cc
=103	=103	=103	=103
1G	0d_	2a]	2.b
.	.	4g	.
.	.	4f	4a
1G	.	1g	1b
=104	=104	=104	=104
00Dl	00d]	00al	00al
==	==	==	==
*-	*-	*-	*-
!!!system-decoration: [*]
!!!RDF**kern: i = editorial accidental
!!!RDF**kern: l = terminal long
!!!ENC: Benjamin Ory
!!!END: 2023/9/19
!!!EED: Benjamin Ory
!!!EEV: 2023/09/19
!!!YEC: Copyright 2023 Benjamin Ory, All Rights Reserved
!!!ONB: Translated from MusicXML on 2023/09/19
